X: 224
T:In principio erat verbum / Fuit homo missus / Et verbum caro factum est
N: Derived from Jos1908-In_principio_erat_verbum.krn
C: Josquin des Prez
%%abc-version 2.0
%%abcx-abcm2ps-target-version 5.9.1 (29 Sep 2008)
%%abc-creator hum2abc beta
%%abcx-conversion-date 2019/02/12 16:15:49
%%abc-edited-by Jesse Rodin
%%abc-edited-by Jesse Rodin; Victoria Chang 2011/05/21
%%abcx-initial-encoding-date 2011/05/21/
%%humdrum-veritas 2101305475
%%humdrum-veritas-data 3084700027
%%linebreak <none>
%%barnumbers 0
L: 1/4
M: 2/1
Q: 1/2=120
%%staves [1 2 3 4]
V: 1 clef=treble
V: 2 clef=treble-8
V: 3 clef=treble-8
V: 4 clef=bass
K: F
[V:1] z8 | 
[V:2] z8 | 
[V:3] c8 | 
[V:4] z8 | 
[V:1] c8 | 
[V:2] z8 | 
[V:3] c4c4- | 
[V:4] z8 | 
[V:1] c4c4- | 
[V:2] z8 | 
[V:3] c2A2A2f2 | 
[V:4] z8 | 
[V:1] c2A2A4 | 
[V:2] z8 | 
[V:3] e2f4ed | 
[V:4] z8 | 
[V:1] c2c2c4 | 
[V:2] z8 | 
[V:3] c8 | 
[V:4] F,8 | 
[V:1] c8 | 
[V:2] f8 | 
[V:3] z8 | 
[V:4] F,4F,4- | 
[V:1] z8 | 
[V:2] f4f4- | 
[V:3] z8 | 
[V:4] F,2D,2D,2B,2 | 
[V:1] z8 | 
[V:2] f2d2d4 | 
[V:3] z8 | 
[V:4] A,2B,4A,G, | 
[V:1] z8 | 
[V:2] f2f2f4 | 
[V:3] z4c4 | 
[V:4] F,8- | 
[V:1] c4c2c2 | 
[V:2] f8 | 
[V:3] c2c2c4 | 
[V:4] F,8 | 
[V:1] c3AA2FG | 
[V:2] z8 | 
[V:3] A3FF2f2- | 
[V:4] z8 | 
[V:1] A=Bc3BBA | 
[V:2] z8 | 
[V:3] f2e2d4 | 
[V:4] z8 | 
[V:1] c8 | 
[V:2] z8 | 
[V:3] c8 | 
[V:4] z4F,4 | 
[V:1] z8 | 
[V:2] f4f2f2 | 
[V:3] z8 | 
[V:4] F,2F,2F,4 | 
[V:1] z8 | 
[V:2] f3dd2Bc | 
[V:3] z8 | 
[V:4] D,3B,,B,,2B,2- | 
[V:1] z8 | 
[V:2] def3eed | 
[V:3] z8 | 
[V:4] B,2A,2G,4 | 
[V:1] z8 | 
[V:2] f4z4 | 
[V:3] z4f4 | 
[V:4] F,8 | 
[V:1] f4f2f2 | 
[V:2] z8 | 
[V:3] f2f2f4 | 
[V:4] z8 | 
[V:1] f4e2f2- | 
[V:2] z8 | 
[V:3] d2a3gfe | 
[V:4] z8 | 
[V:1] fed4^c2 | 
[V:2] z8 | 
[V:3] f2g2e4 | 
[V:4] z8 | 
[V:1] d8 | 
[V:2] z8 | 
[V:3] d4z2d2 | 
[V:4] z4B,4 | 
[V:1] z8 | 
[V:2] f4f2f2 | 
[V:3] d2d2d3c | 
[V:4] B,2B,2B,4 | 
[V:1] z8 | 
[V:2] f4e2f2- | 
[V:3] d2c3BAG | 
[V:4] F,2A,3G,F,E, | 
[V:1] z8 | 
[V:2] fed4^c2 | 
[V:3] A2B2G4 | 
[V:4] F,2G,2E,4 | 
[V:1] z4f4 | 
[V:2] d8- | 
[V:3] A4z4 | 
[V:4] D,8- | 
[V:1] f4d2f2- | 
[V:2] d8 | 
[V:3] f4f4 | 
[V:4] D,8 | 
[V:1] fed2c2d2 | 
[V:2] z8 | 
[V:3] d2f3ed2 | 
[V:4] z8 | 
[V:1] e2A=Bcde2- | 
[V:2] z8 | 
[V:3] c2d2e2A=B | 
[V:4] z8 | 
[V:1] e2c2=B4 | 
[V:2] z8 | 
[V:3] cdefg2a^g | 
[V:4] z8 | 
[V:1] A8- | 
[V:2] z4f4- | 
[V:3] a8 | 
[V:4] z8 | 
[V:1] A8 | 
[V:2] f2f2f2f2 | 
[V:3] z8 | 
[V:4] F,6F,2 | 
[V:1] z8 | 
[V:2] f4c4 | 
[V:3] z8 | 
[V:4] F,2F,2F,4 | 
[V:1] z8 | 
[V:2] edefg2a2- | 
[V:3] z8 | 
[V:4] C,2C3B,A,G, | 
[V:1] z8 | 
[V:2] agf4e2 | 
[V:3] z8 | 
[V:4] F,3A,G,4 | 
[V:1] z8 | 
[V:2] f8 | 
[V:3] z8 | 
[V:4] F,4z2F,2 | 
[V:1] z8 | 
[V:2] z4c4 | 
[V:3] z8 | 
[V:4] G,2G,2A,4 | 
[V:1] z8 | 
[V:2] d2d2e4 | 
[V:3] f4g2g2 | 
[V:4] D,4z4 | 
[V:1] c4d2d2 | 
[V:2] A4z4 | 
[V:3] a4d4 | 
[V:4] z2A,2F,2G,2 | 
[V:1] e4A4 | 
[V:2] c4d2d2 | 
[V:3] z4f4 | 
[V:4] E,4D,4 | 
[V:1] z4c4 | 
[V:2] e4A4 | 
[V:3] g2g2a4 | 
[V:4] z4z2A,2 | 
[V:1] d2d2e4 | 
[V:2] z4c4 | 
[V:3] d2d2g2e2 | 
[V:4] F,2G,2E,4 | 
[V:1] A4c4- | 
[V:2] d2d2e4 | 
[V:3] f3ec4 | 
[V:4] D,4A,4- | 
[V:1] c2c2c2e2- | 
[V:2] A2a4a2 | 
[V:3] z2c2c2c2 | 
[V:4] A,2A,2A,4 | 
[V:1] edd4^c2 | 
[V:2] f2g2e4 | 
[V:3] d4A4 | 
[V:4] B,2G,2A,4 | 
[V:1] d8 | 
[V:2] d8 | 
[V:3] z4d4 | 
[V:4] D,4z4 | 
[V:1] z8 | 
[V:2] z8 | 
[V:3] f6f2 | 
[V:4] D,4F,4- | 
[V:1] z8 | 
[V:2] z8 | 
[V:3] f2f2f4 | 
[V:4] F,2F,2F,2F,2 | 
[V:1] z8 | 
[V:2] z8 | 
[V:3] c3defg2- | 
[V:4] F,4C,4 | 
[V:1] z8 | 
[V:2] z8 | 
[V:3] g2f4e2 | 
[V:4] E,2F,2G,4 | 
[V:1] z4A4 | 
[V:2] z8 | 
[V:3] f4c4 | 
[V:4] F,4F,4 | 
[V:1] A2A2A4 | 
[V:2] z4f4 | 
[V:3] c2c2c4 | 
[V:4] F,2F,2F,4 | 
[V:1] A4A4 | 
[V:2] f2f2f4 | 
[V:3] d4d4 | 
[V:4] D,4D,4 | 
[V:1] =B6B2 | 
[V:2] d4d4 | 
[V:3] =B6=B2 | 
[V:4] G,6G,2 | 
[V:1] A4z4 | 
[V:2] f6f2 | 
[V:3] c3=Bc2A2- | 
[V:4] F,8 | 
[V:1] c4c4 | 
[V:2] f4f4 | 
[V:3] A2F2F4 | 
[V:4] z8 | 
[V:1] c4d4- | 
[V:2] f4f4 | 
[V:3] z8 | 
[V:4] z8 | 
[V:1] d2d2e4 | 
[V:2] g6g2 | 
[V:3] z4c4 | 
[V:4] z8 | 
[V:1]  [K:C] c6A2 | 
[V:2]  [K:C] a4f4- | 
[V:3]  [K:C] c4c4 | 
[V:4]  [K:C] F,4F,4 | 
[V:1] A4z4 | 
[V:2] f2d2d4 | 
[V:3] d6d2 | 
[V:4] F,4G,4- | 
[V:1] z8 | 
[V:2] z8 | 
[V:3] e4c4- | 
[V:4] G,2G,2A,4 | 
[V:1] z8 | 
[V:2] z8 | 
[V:3] c2A2A4 | 
[V:4] F,6D,2 | 
[V:1] z4d4 | 
[V:2] f4f4- | 
[V:3] z2d2d2d2 | 
[V:4] D,8 | 
[V:1] d6d2 | 
[V:2] f2f2d4 | 
[V:3] d3ef2g2- | 
[V:4] z2_B,2B,2B,2 | 
[V:1] B4c4- | 
[V:2] e6c2 | 
[V:3] gfedc4 | 
[V:4] G,4A,4- | 
[V:1] c2A2A4 | 
[V:2] c4z2f2 | 
[V:3] z4c4 | 
[V:4] A,2F,2F,4 | 
[V:1] z4c4 | 
[V:2] f2f2e2f2- | 
[V:3] d2c3_BAG | 
[V:4] z2A,2A,2A,2 | 
[V:1] d4e4 | 
[V:2] fed4^c2 | 
[V:3] A2_B2G4 | 
[V:4] F,2G,2E,4 | 
[V:1] f4f4- | 
[V:2] d8 | 
[V:3] A4z4 | 
[V:4] D,8 | 
[V:1] f2d2d4 | 
[V:2] f4f4- | 
[V:3] z2d2d2d2 | 
[V:4] z4_B,4 | 
[V:1] z2d2d2d2 | 
[V:2] f2f2d4 | 
[V:3] d3ef2g2- | 
[V:4] _B,6B,2 | 
[V:1] B4c4- | 
[V:2] e6c2 | 
[V:3] gfedc4 | 
[V:4] G,4A,4- | 
[V:1] c2A2A4 | 
[V:2] c4z2f2 | 
[V:3] z4c4 | 
[V:4] A,2F,2F,4 | 
[V:1] z4c4 | 
[V:2] f2f2e2f2- | 
[V:3] d2c3_BAG | 
[V:4] z2A,2A,2A,2 | 
[V:1] d4e4 | 
[V:2] fed4^c2 | 
[V:3] A2_B2G4 | 
[V:4] F,2G,2E,4 | 
[V:1] f3edcd2- | 
[V:2] d8- | 
[V:3] A2f2f2f2 | 
[V:4] D,2D,2D,2D,2 | 
[V:1] dc_BAB4 | 
[V:2] d8- | 
[V:3] g4g4 | 
[V:4] G,4G,4 | 
[V:1] A8 ||  
[V:2] d8 ||  
[V:3] f8 ||  
[V:4] D,8 ||  
[V:1] [M:2/1]z8 | 
[V:2] [M:2/1]z4f4- | 
[V:3] [M:2/1]z8 | 
[V:4] [M:2/1]F,6F,2 | 
[V:1] z8 | 
[V:2] f2f2f4 | 
[V:3] z8 | 
[V:4] F,4D,4 | 
[V:1] z8 | 
[V:2] d2c2d2f2- | 
[V:3] z8 | 
[V:4] F,6F,2 | 
[V:1] z8 | 
[V:2] f2ede4 | 
[V:3] z8 | 
[V:4] A,3_B,G,4 | 
[V:1] z4c4- | 
[V:2] f8 | 
[V:3] c6c2 | 
[V:4] F,8 | 
[V:1] c2c2c4 | 
[V:2] z8 | 
[V:3] c4A4 | 
[V:4] z8 | 
[V:1] A2G2A2c2- | 
[V:2] z8 | 
[V:3] c6c2 | 
[V:4] z8 | 
[V:1] c2BAB4 | 
[V:2] z8 | 
[V:3] e3fd4 | 
[V:4] z8 | 
[V:1] c8 | 
[V:2] z4f4- | 
[V:3] c4c2c2 | 
[V:4] A,6A,2 | 
[V:1] z8 | 
[V:2] f2f2f4 | 
[V:3] c4d4 | 
[V:4] A,4D,4 | 
[V:1] z8 | 
[V:2] e2f2e2f2- | 
[V:3] c4B2c2- | 
[V:4] A,4G,2A,2- | 
[V:1] z8 | 
[V:2] fed4^c2 | 
[V:3] cBA4G2 | 
[V:4] A,G,F,2E,4 | 
[V:1] z4f4- | 
[V:2] d4z2d2- | 
[V:3] A4a4- | 
[V:4] D,4z2D,2- | 
[V:1] f2f2f4 | 
[V:2] d2d2d4 | 
[V:3] a2a2a4 | 
[V:4] D,2D,2D,4 | 
[V:1] e2f2e2f2- | 
[V:2] c2d2A2a2- | 
[V:3] a4a4 | 
[V:4] A,2D,2A,2D,2 | 
[V:1] fed4^c2 | 
[V:2] agf2e4 | 
[V:3] a2a2a4 | 
[V:4] F,3G,A,4 | 
[V:1] d8- | 
[V:2] d8 | 
[V:3] f4z2f2 | 
[V:4] D,8- | 
[V:1] d8 | 
[V:2] z4f4 | 
[V:3] f4d4 | 
[V:4] D,8- | 
[V:1] z4f4 | 
[V:2] f4d4 | 
[V:3] z2f2f4 | 
[V:4] D,8 | 
[V:1] f4d4 | 
[V:2] d4f4- | 
[V:3] d8 | 
[V:4] z4D,4 | 
[V:1] c4d4- | 
[V:2] f2f2f2f2 | 
[V:3] A4_B4- | 
[V:4] F,4_B,,4 | 
[V:1] d2c2d3e | 
[V:2] f4z4 | 
[V:3] B2A2F2_B2 | 
[V:4] z2F,2D,2_B,,2 | 
[V:1] f4z2c2 | 
[V:2] f4f4- | 
[V:3] A4z2A2 | 
[V:4] D,3E,F,4 | 
[V:1] d2c2d3e | 
[V:2] f2f2f2f2 | 
[V:3] _B2A2F2_B2 | 
[V:4] z2F,2D,2_B,,2 | 
[V:1] f4c4 | 
[V:2] f4f2f2 | 
[V:3] A4z2A2 | 
[V:4] D,3E,F,4 | 
[V:1] d4d4 | 
[V:2] f4f4 | 
[V:3] _B4_B4 | 
[V:4] z2_B,,2_B,4 | 
[V:1] c2A2_B2B2 | 
[V:2] f4d2e2 | 
[V:3] F4z2_B2 | 
[V:4] A,4G,4 | 
[V:1] A8 | 
[V:2] f4z2f2 | 
[V:3] c4d4 | 
[V:4] F,4D,3E, | 
[V:1] z4d4 | 
[V:2] f4f4 | 
[V:3] A2F2_B4 | 
[V:4] F,4z2_B,,2 | 
[V:1] c4d4 | 
[V:2] f4f4 | 
[V:3] A4z2d2- | 
[V:4] F,4_B,,4 | 
[V:1] z2d4c2 | 
[V:2] f4f2f2- | 
[V:3] dc_BA_B2c2 | 
[V:4] _B,6A,2 | 
[V:1] d4e4 | 
[V:2] fed3^c^cB | 
[V:3] A2_B2G4 | 
[V:4] F,2G,2E,4 | 
[V:1] f3edcd2- | 
[V:2] d8- | 
[V:3] A8 | 
[V:4] D,8- | 
[V:1] d2c_BA4 | 
[V:2] d8 | 
[V:3] z4f4 | 
[V:4] D,8- | 
[V:1] z4A4 | 
[V:2] z8 | 
[V:3] f4f4- | 
[V:4] D,8 | 
[V:1] c6B2 | 
[V:2] z8 | 
[V:3] f2ede2g2- | 
[V:4] z8 | 
[V:1] A4G4 | 
[V:2] z4c4 | 
[V:3] gff4e2 | 
[V:4] z8 | 
[V:1] F8 | 
[V:2] d4f4- | 
[V:3] f8 | 
[V:4] z4F,4 | 
[V:1] z8 | 
[V:2] f2ede2g2- | 
[V:3] z8 | 
[V:4] C6B,2 | 
[V:1] z8 | 
[V:2] gff4e2 | 
[V:3] z8 | 
[V:4] A,4G,4 | 
[V:1] z8 | 
[V:2] f4c4- | 
[V:3] z8 | 
[V:4] F,8 | 
[V:1] A8 | 
[V:2] c4c4 | 
[V:3] z4f4 | 
[V:4] F,8 | 
[V:1] A4B4- | 
[V:2] d6d2 | 
[V:3] f4g4- | 
[V:4] D,4G,4- | 
[V:1] B2B2B2B2 | 
[V:2] d2d2e4 | 
[V:3] g2g2g2g2 | 
[V:4] G,2G,2G,2G,2 | 
[V:1] c4A4 | 
[V:2] c4d4 | 
[V:3] e4f4 | 
[V:4] A,4D,4 | 
[V:1] B6B2 | 
[V:2] d4e4 | 
[V:3] g6g2 | 
[V:4] G,6G,2 | 
[V:1] c4A4 | 
[V:2] c4d4- | 
[V:3] e2f3edc | 
[V:4] A,4D,4 | 
[V:1] B6B2 | 
[V:2] d2d2e4 | 
[V:3] B4B4 | 
[V:4] G,6G,2 | 
[V:1] c4A4 | 
[V:2] c4c2c2 | 
[V:3] A4z2f2 | 
[V:4] A,4F,4 | 
[V:1] A2A2B4- | 
[V:2] d8 | 
[V:3] f2f2g4- | 
[V:4] F,2D,2G,4- | 
[V:1] B4c4 | 
[V:2] e4c4 | 
[V:3] g4e4 | 
[V:4] G,4A,4 | 
[V:1] A4A4 | 
[V:2] c4d4- | 
[V:3] f4f4 | 
[V:4] F,4D,4 | 
[V:1] B6B2 | 
[V:2] d2d2e4 | 
[V:3] g6g2 | 
[V:4] G,6G,2 | 
[V:1] c4A4 | 
[V:2] c4c4 | 
[V:3] e4f4 | 
[V:4] A,4F,4 | 
[V:1] A4B4- | 
[V:2] d6d2 | 
[V:3] f4g4- | 
[V:4] D,4G,4- | 
[V:1] B2B2c4 | 
[V:2] e4c2c2 | 
[V:3] g2g2e4 | 
[V:4] G,2G,2A,4 | 
[V:1] A2A2B4- | 
[V:2] d8 | 
[V:3] f2f2g4- | 
[V:4] F,2D,2G,4- | 
[V:1] B4c4 | 
[V:2] e4c4 | 
[V:3] g4e2a2- | 
[V:4] G,4A,4 | 
[V:1] A4A4 | 
[V:2] c4c4- | 
[V:3] agfef4- | 
[V:4] F,4F,4 | 
[V:1] A6F2 | 
[V:2] c2A2A4 | 
[V:3] f2edc2d2 | 
[V:4] F,6D,2 | 
[V:1] F4z4 | 
[V:2] z4d4 | 
[V:3] A2_B4AG | 
[V:4] D,8 | 
[V:1] A4c3d | 
[V:2] f3gabc'2- | 
[V:3] F4z4 | 
[V:4] z8 | 
[V:1] e2f3eed | 
[V:2] c'2a2g4 | 
[V:3] z8 | 
[V:4] z8 | 
[V:1] f8 | 
[V:2] f8 | 
[V:3] z8 | 
[V:4] z4D,4 | 
[V:1] z8 | 
[V:2] z8 | 
[V:3] A4c3d | 
[V:4] F,3G,A,B,C2- | 
[V:1] z8 | 
[V:2] z8 | 
[V:3] e2f3eed | 
[V:4] C2A,2G,4 | 
[V:1] z4c4 | 
[V:2] z8 | 
[V:3] f2c2c4 | 
[V:4] F,8 | 
[V:1] c4A4 | 
[V:2] z4f4 | 
[V:3] A6Bc | 
[V:4] z2F,2F,4 | 
[V:1] z4A4 | 
[V:2] f4d4 | 
[V:3] d8 | 
[V:4] D,4D,4 | 
[V:1] B4A4 | 
[V:2] d4f4- | 
[V:3] z2G2A2A2 | 
[V:4] G,4F,4 | 
[V:1] d6d2 | 
[V:2] f2f2f2f2 | 
[V:3] _B6_B2 | 
[V:4] _B,,6B,,2 | 
[V:1] c4z4 | 
[V:2] f4z4 | 
[V:3] A4z4 | 
[V:4] F,4z4 | 
[V:1] (3:2:2A8A4 | 
[V:2] (3:2:2f8f4 | 
[V:3] (3:2:2c8c4 | 
[V:4] (3:2:2F,8F,4 | 
[V:1] (3:2:2A4A8 | 
[V:2] (3:2:2f4f8 | 
[V:3] (3:2:2c4c8 | 
[V:4] (3:2:2F,4F,8 | 
[V:1] (3G4c6B2 | 
[V:2] (3:2:2e8c4 | 
[V:3] (3:2:2c8A4 | 
[V:4] (3:2:2C,8F,4 | 
[V:1] (3:2:2A4G8 | 
[V:2] (3:2:2d4e8 | 
[V:3] (3:2:2A4_B8 | 
[V:4] (3:2:2F,4G,8 | 
[V:1] F8 | 
[V:2] d8- | 
[V:3] A8 | 
[V:4] D,8- | 
[V:1] z8 | 
[V:2] d8 | 
[V:3] z4d4 | 
[V:4] D,8 | 
[V:1] A4c4- | 
[V:2] z8 | 
[V:3] f6f2 | 
[V:4] z8 | 
[V:1] c2c2c3d | 
[V:2] z8 | 
[V:3] f3gabc'2- | 
[V:4] z8 | 
[V:1] e2f4e2 | 
[V:2] z8 | 
[V:3] c'2a2g4 | 
[V:4] z8 | 
[V:1] f8 | 
[V:2] z8 | 
[V:3] f8 | 
[V:4] z4D,4 | 
[V:1] z8 | 
[V:2] A4c4- | 
[V:3] z8 | 
[V:4] F,6F,2 | 
[V:1] z8 | 
[V:2] c2c2c3d | 
[V:3] z8 | 
[V:4] F,3G,A,B,C2- | 
[V:1] z8 | 
[V:2] e2f4e2 | 
[V:3] z8 | 
[V:4] C2A,2G,4 | 
[V:1] z4c4 | 
[V:2] f4f4 | 
[V:3] z4f4 | 
[V:4] F,4F,4 | 
[V:1] d2d2d4 | 
[V:2] d2d2d4 | 
[V:3] f2f2g4 | 
[V:4] _B,2B,2B,4 | 
[V:1] c2c2c2e2- | 
[V:2] e2f2e2c2 | 
[V:3] a4a4 | 
[V:4] A,4A,4 | 
[V:1] edd3^ccB | 
[V:2] d4A4 | 
[V:3] f2g2e4 | 
[V:4] _B,2G,2A,4 | 
[V:1] d4z4 | 
[V:2] z4f4 | 
[V:3] d8 | 
[V:4] D,8 | 
[V:1] A6A2 | 
[V:2] f4f4- | 
[V:3] z4c4- | 
[V:4] F,6F,2 | 
[V:1] A4G4 | 
[V:2] f4e4 | 
[V:3] c2c2c4 | 
[V:4] F,4C,4 | 
[V:1] A6A2 | 
[V:2] f6f2 | 
[V:3] A4A2A2 | 
[V:4] F,6F,2 | 
[V:1] A2A2G4 | 
[V:2] f2f2e4 | 
[V:3] c2c2c4 | 
[V:4] F,2F,2C,4 | 
[V:1] A8 | 
[V:2] f4z4 | 
[V:3] c4c4 | 
[V:4] F,8 | 
[V:1] z8 | 
[V:2] f4g4 | 
[V:3] d4e4 | 
[V:4] z8 | 
[V:1] z8 | 
[V:2] a4d2a2- | 
[V:3] A2d4d2 | 
[V:4] z8 | 
[V:1] z8 | 
[V:2] a2a2a4 | 
[V:3] d4c2A2 | 
[V:4] z8 | 
[V:1] z8 | 
[V:2] g2e2f2g2 | 
[V:3] B2c2d2G2 | 
[V:4] z8 | 
[V:1] z8 | 
[V:2] a2d2a4 | 
[V:3] d6d2 | 
[V:4] z8 | 
[V:1] z8 | 
[V:2] a2a2a4 | 
[V:3] d4z4 | 
[V:4] z8 | 
[V:1] (3:2:2A8A4 | 
[V:2] (3:2:2f8f4 | 
[V:3] (3:2:2d8d4 | 
[V:4] (3:2:2D,8D,4 | 
[V:1] (3:2:2A8B4 | 
[V:2] (3:2:2f8d4 | 
[V:3] (3:2:2d8d4 | 
[V:4] (3:2:2D,8G,4 | 
[V:1] (3B4A6A2 | 
[V:2] (3d4f6f2 | 
[V:3] (3B4c6c2 | 
[V:4] (3G,4F,6F,2 | 
[V:1] (3:2:2A4_B8 | 
[V:2] (3:2:2f4f8 | 
[V:3] (3:2:2c4d8 | 
[V:4] (3:2:2F,4_B,8 | 
[V:1] A8 | 
[V:2] f4z4 | 
[V:3] c4z4 | 
[V:4] F,8 | 
[V:1] z4c4 | 
[V:2] f4f4 | 
[V:3] z8 | 
[V:4] z8 | 
[V:1] c4B2G2 | 
[V:2] e2c2d2e2 | 
[V:3] z8 | 
[V:4] z8 | 
[V:1] A3Bc4 | 
[V:2] f8 | 
[V:3] z4c4 | 
[V:4] F,4F,4 | 
[V:1] z8 | 
[V:2] z8 | 
[V:3] c4B2G2 | 
[V:4] E,2C,2D,2E,2 | 
[V:1] z8 | 
[V:2] z8 | 
[V:3] A3Bc4 | 
[V:4] F,8 | 
[V:1] (3A4A4A4 | 
[V:2] (3f4f4f4 | 
[V:3] (3d4d4d4 | 
[V:4] (3D,4D,4D,4 | 
[V:1] (3A4A4G4 | 
[V:2] (3e4f4d4 | 
[V:3] (3c4A4_B4 | 
[V:4] (3A,4F,4_B,4 | 
[V:1] (3:2:2F4G8 | 
[V:2] (3c4d6e2 | 
[V:3] (3:2:2F4_B8 | 
[V:4] (3:2:2A,4G,8 | 
[V:1] A8 | 
[V:2] f8 | 
[V:3] A8 | 
[V:4] F,8 | 
[V:1] z4c4 | 
[V:2] f4f2f2 | 
[V:3] z8 | 
[V:4] z8 | 
[V:1] c2c2B2c2 | 
[V:2] e2f2d2c2 | 
[V:3] z8 | 
[V:4] z8 | 
[V:1] F2A2G4 | 
[V:2] d2f3eed | 
[V:3] z8 | 
[V:4] z8 | 
[V:1] F3GA4 | 
[V:2] f8 | 
[V:3] z4c4 | 
[V:4] F,4F,2F,2 | 
[V:1] z8 | 
[V:2] z8 | 
[V:3] c2c2B2c2 | 
[V:4] E,2F,2D,2C,2 | 
[V:1] z8 | 
[V:2] z8 | 
[V:3] F2A2G4 | 
[V:4] D,2F,4E,2 | 
[V:1] z8 | 
[V:2] f8 | 
[V:3] F4z4 | 
[V:4] F,4_B,,4- | 
[V:1] d6d2 | 
[V:2] f4f4- | 
[V:3] _B6_B2 | 
[V:4] B,,4_B,,4 | 
[V:1] d4c2d2 | 
[V:2] f4f4 | 
[V:3] _B4F2f2- | 
[V:4] _B,4A,2B,2 | 
[V:1] c2d4c_B | 
[V:2] f4f4 | 
[V:3] fedc_B4 | 
[V:4] A,2_B,4A,G, | 
[V:1] A4z4 | 
[V:2] f8 | 
[V:3] c4d4 | 
[V:4] F,4D,4- | 
[V:1] A6A2 | 
[V:2] d8- | 
[V:3] f6f2 | 
[V:4] D,4D,4 | 
[V:1] _B4A2B2 | 
[V:2] d8- | 
[V:3] _Bcdef2_B2 | 
[V:4] G,4F,2G,2 | 
[V:1] A2_B4AG | 
[V:2] d8- | 
[V:3] fedc_B2d2- | 
[V:4] F,2G,4F,E, | 
[V:1] F8- | 
[V:2] d8- | 
[V:3] dcA2_B4 | 
[V:4] D,8- | 
[V:1] F8 ||  
[V:2] d8 ||  
[V:3] A8 ||  
[V:4] D,8 ||  
[V:1]  [K:F] [M:2/1]A8 | 
[V:2]  [K:F] [M:2/1]f8 | 
[V:3]  [K:F] [M:2/1]d8 | 
[V:4]  [K:F] [M:2/1]D,8 | 
[V:1] A8 | 
[V:2] f8 | 
[V:3] d8 | 
[V:4] D,8 | 
[V:1] =B8 | 
[V:2] d8 | 
[V:3] =B8 | 
[V:4] G,8 | 
[V:1] A8 | 
[V:2] f8 | 
[V:3] d8 | 
[V:4] D,8 | 
[V:1] A8 | 
[V:2] f8 | 
[V:3] A8 | 
[V:4] F,8 | 
[V:1] G8- | 
[V:2] e8- | 
[V:3] c8- | 
[V:4] C,8- | 
[V:1] G4G4 | 
[V:2] e4e4 | 
[V:3] c4c4 | 
[V:4] C,4C,4 | 
[V:1] A8 | 
[V:2] f4z2c2 | 
[V:3] c6A2 | 
[V:4] F,8 | 
[V:1] z8 | 
[V:2] d2e2f4 | 
[V:3] B2A2F4 | 
[V:4] z4z2F,2 | 
[V:1] z8 | 
[V:2] e3cd2f2- | 
[V:3] z8 | 
[V:4] G,2A,2B,2A,2 | 
[V:1] z8 | 
[V:2] fedc=B4 | 
[V:3] z8 | 
[V:4] F,4G,4 | 
[V:1] z4z2c2 | 
[V:2] A8 | 
[V:3] z8 | 
[V:4] A,8 | 
[V:1] d2e2f4 | 
[V:2] z8 | 
[V:3] z4z2f2 | 
[V:4] z8 | 
[V:1] e3cd2f2- | 
[V:2] z8 | 
[V:3] g2a2b2a2 | 
[V:4] z8 | 
[V:1] fedc=B4 | 
[V:2] z8 | 
[V:3] f4g4 | 
[V:4] z8 | 
[V:1] A8 | 
[V:2] z4f4 | 
[V:3] a8 | 
[V:4] z8 | 
[V:1] z8 | 
[V:2] f6e2 | 
[V:3] z8 | 
[V:4] D,4B,4- | 
[V:1] z8 | 
[V:2] d2c2d2f2- | 
[V:3] z8 | 
[V:4] B,2A,2G,2F,2 | 
[V:1] z8 | 
[V:2] f2ede4 | 
[V:3] z8 | 
[V:4] A,2B,2G,4 | 
[V:1] z8 | 
[V:2] f8 | 
[V:3] z4f4 | 
[V:4] F,8 | 
[V:1] f4f4- | 
[V:2] z8 | 
[V:3] f6e2 | 
[V:4] z8 | 
[V:1] f2e2d2c2 | 
[V:2] z8 | 
[V:3] d2c2d2f2- | 
[V:4] z8 | 
[V:1] A2B2G4 | 
[V:2] z8 | 
[V:3] f2ede4 | 
[V:4] z8 | 
[V:1] F4z2A2 | 
[V:2] z8 | 
[V:3] f4f4 | 
[V:4] z4F,4 | 
[V:1] d2d2d4 | 
[V:2] d4d2d2 | 
[V:3] f2f2g4 | 
[V:4] B,2B,2B,4 | 
[V:1] c4c2c2 | 
[V:2] e4f4 | 
[V:3] a4z2f2- | 
[V:4] A,4F,2F,2 | 
[V:1] d6d2 | 
[V:2] d2d2d2d2 | 
[V:3] f2f2f2g2 | 
[V:4] B,6B,2 | 
[V:1] c2A=Bcde2- | 
[V:2] e4c4 | 
[V:3] a4a4 | 
[V:4] A,4A,4 | 
[V:1] edd4^c2 | 
[V:2] d4A4 | 
[V:3] f2g2e4 | 
[V:4] B,2G,2A,4 | 
[V:1] d8 | 
[V:2] f3edcdc | 
[V:3] d8- | 
[V:4] D,2DCB,A,B,A, | 
[V:1] z8 | 
[V:2] BAB4AG | 
[V:3] d8- | 
[V:4] G,F,G,4F,E, | 
[V:1] f8 | 
[V:2] B2A4F2 | 
[V:3] d8 | 
[V:4] D,8 | 
[V:1] d4c4 | 
[V:2] B3AF4 | 
[V:3] z4f4- | 
[V:4] z8 | 
[V:1] d4f4- | 
[V:2] z8 | 
[V:3] f4f4 | 
[V:4] D,6D,2 | 
[V:1] f2ede2e2 | 
[V:2] z8 | 
[V:3] f4g4 | 
[V:4] D,4C,4 | 
[V:1] f3edcc2- | 
[V:2] f8 | 
[V:3] a8 | 
[V:4] F,8 | 
[V:1] c2=B2c4 | 
[V:2] d4c4 | 
[V:3] z4A4 | 
[V:4] z8 | 
[V:1] F6F2 | 
[V:2] d4f4- | 
[V:3] A2B4AG | 
[V:4] D,6D,2 | 
[V:1] F4G4 | 
[V:2] f2ede2e2 | 
[V:3] F4c4 | 
[V:4] D,4C,4 | 
[V:1] A4z2c2 | 
[V:2] f8 | 
[V:3] A4z2A2 | 
[V:4] F,4z2F,2 | 
[V:1] c2c2d4 | 
[V:2] z4f4 | 
[V:3] A2A2B4 | 
[V:4] F,2F,2B,,4 | 
[V:1] c4z2c2 | 
[V:2] f4f4 | 
[V:3] A4z2A2 | 
[V:4] F,4z2F,2 | 
[V:1] c2c2d4 | 
[V:2] f8 | 
[V:3] A2A2B4 | 
[V:4] F,2F,2B,,4 | 
[V:1] c8 |]  
[V:2] f8 |]  
[V:3] A8 |]  
[V:4] F,8 |]  



